build/fonts/cisco/simulitlayerswitch.svg

<?xml version="1.0" encoding="UTF-8" standalone="no"?>
<svg
   xmlns:dc="http://purl.org/dc/elements/1.1/"
   xmlns:cc="http://creativecommons.org/ns#"
   xmlns:rdf="http://www.w3.org/1999/02/22-rdf-syntax-ns#"
   xmlns:svg="http://www.w3.org/2000/svg"
   xmlns="http://www.w3.org/2000/svg"
   viewBox="0 0 35 37.5"
   height="37.5"
   width="35"
   xml:space="preserve"
   version="1.1"
   id="svg2"><metadata
     id="metadata8"><rdf:RDF><cc:Work
         rdf:about=""><dc:format>image/svg+xml</dc:format><dc:type
           rdf:resource="http://purl.org/dc/dcmitype/StillImage" /></cc:Work></rdf:RDF></metadata><defs
     id="defs6"><clipPath
       id="clipPath18"
       clipPathUnits="userSpaceOnUse"><path
         id="path20"
         d="M 0,10 0,296 280,296 280,10 0,10 Z" /></clipPath></defs><g
     transform="matrix(1.25,0,0,-1.25,0,37.5)"
     id="g10"><g
       transform="scale(0.1,0.1)"
       id="g12"><g
         id="g14"><g
           clip-path="url(#clipPath18)"
           id="g16"><path
             id="path22"
             style="fill:#026c9b;fill-opacity:1;fill-rule:nonzero;stroke:none"
             d="m 5.30859,14.582 226.84,0 0,230.738 -226.84,0 0,-230.738 z" /><path
             id="path24"
             style="fill:none;stroke:#ffffff;stroke-width:4;stroke-linecap:butt;stroke-linejoin:miter;stroke-miterlimit:4;stroke-dasharray:none;stroke-opacity:1"
             d="m 5.30859,14.582 226.84,0 0,230.738 -226.84,0 0,-230.738 z" /><path
             id="path26"
             style="fill:#026c9b;fill-opacity:1;fill-rule:nonzero;stroke:none"
             d="m 278.012,291.25 -46.532,-45.859 -226.40187,0 49.02347,45.859 223.9104,0" /><path
             id="path28"
             style="fill:none;stroke:#ffffff;stroke-width:4;stroke-linecap:butt;stroke-linejoin:miter;stroke-miterlimit:4;stroke-dasharray:none;stroke-opacity:1"
             d="m 278.012,291.25 -46.532,-45.859 -226.40187,0 49.02347,45.859 223.9104,0 z" /><path
             id="path30"
             style="fill:#026c9b;fill-opacity:1;fill-rule:nonzero;stroke:none"
             d="m 278.281,70.1602 0,220.9418 -45.941,-45.942 0,-229.6873 45.941,54.6875" /><path
             id="path32"
             style="fill:none;stroke:#ffffff;stroke-width:4;stroke-linecap:butt;stroke-linejoin:miter;stroke-miterlimit:4;stroke-dasharray:none;stroke-opacity:1"
             d="m 278.281,70.1602 0,220.9418 -45.941,-45.942 0,-229.6873 45.941,54.6875 z" /><path
             id="path34"
             style="fill:#ffffff;fill-opacity:1;fill-rule:nonzero;stroke:none"
             d="m 119.219,176.992 c 25.39,0 45.98,-20.582 45.98,-45.972 0,-25.348 -20.59,-45.938 -45.98,-45.938 -25.3479,0 -45.9377,20.59 -45.9377,45.938 0,25.39 20.5898,45.972 45.9377,45.972" /><path
             id="path36"
             style="fill:none;stroke:#ffffff;stroke-width:4;stroke-linecap:butt;stroke-linejoin:miter;stroke-miterlimit:4;stroke-dasharray:none;stroke-opacity:1"
             d="m 119.219,176.992 0,46.528" /><path
             id="path38"
             style="fill:#ffffff;fill-opacity:1;fill-rule:nonzero;stroke:none"
             d="m 119.84,234.961 16.64,-33.82 -33.242,0 16.602,33.82" /><path
             id="path40"
             style="fill:none;stroke:#ffffff;stroke-width:4;stroke-linecap:butt;stroke-linejoin:miter;stroke-miterlimit:4;stroke-dasharray:none;stroke-opacity:1"
             d="m 119.84,234.961 16.64,-33.82 -33.242,0 16.602,33.82 z" /><path
             id="path42"
             style="fill:#ffffff;fill-opacity:1;fill-rule:nonzero;stroke:none"
             d="M 86.7188,163.52 53.8281,196.453" /><path
             id="path44"
             style="fill:none;stroke:#ffffff;stroke-width:4;stroke-linecap:butt;stroke-linejoin:miter;stroke-miterlimit:4;stroke-dasharray:none;stroke-opacity:1"
             d="M 86.7188,163.52 53.8281,196.453" /><path
             id="path46"
             style="fill:#ffffff;fill-opacity:1;fill-rule:nonzero;stroke:none"
             d="M 46.2109,204.961 81.8398,192.82 58.3594,169.301 46.2109,204.961" /><path
             id="path48"
             style="fill:none;stroke:#ffffff;stroke-width:4;stroke-linecap:butt;stroke-linejoin:miter;stroke-miterlimit:4;stroke-dasharray:none;stroke-opacity:1"
             d="M 46.2109,204.961 81.8398,192.82 58.3594,169.301 46.2109,204.961 Z" /><path
             id="path50"
             style="fill:none;stroke:#ffffff;stroke-width:4;stroke-linecap:butt;stroke-linejoin:miter;stroke-miterlimit:4;stroke-dasharray:none;stroke-opacity:1"
             d="m 73.2813,131.02 -46.5625,0" /><path
             id="path52"
             style="fill:#ffffff;fill-opacity:1;fill-rule:nonzero;stroke:none"
             d="m 15.3086,131.641 33.832,16.64 0,-33.238 -33.832,16.598" /><path
             id="path54"
             style="fill:none;stroke:#ffffff;stroke-width:4;stroke-linecap:butt;stroke-linejoin:miter;stroke-miterlimit:4;stroke-dasharray:none;stroke-opacity:1"
             d="m 15.3086,131.641 33.832,16.64 0,-33.238 -33.832,16.598 z" /><path
             id="path56"
             style="fill:#ffffff;fill-opacity:1;fill-rule:nonzero;stroke:none"
             d="M 86.7188,98.5625 53.8281,65.6328" /><path
             id="path58"
             style="fill:none;stroke:#ffffff;stroke-width:4;stroke-linecap:butt;stroke-linejoin:miter;stroke-miterlimit:4;stroke-dasharray:none;stroke-opacity:1"
             d="M 86.7188,98.5625 53.8281,65.6328" /><path
             id="path60"
             style="fill:#ffffff;fill-opacity:1;fill-rule:nonzero;stroke:none"
             d="M 45.3086,58.0117 57.4609,93.6719 80.9805,70.1602 45.3086,58.0117" /><path
             id="path62"
             style="fill:none;stroke:#ffffff;stroke-width:4;stroke-linecap:butt;stroke-linejoin:miter;stroke-miterlimit:4;stroke-dasharray:none;stroke-opacity:1"
             d="M 45.3086,58.0117 57.4609,93.6719 80.9805,70.1602 45.3086,58.0117 Z" /><path
             id="path64"
             style="fill:none;stroke:#ffffff;stroke-width:4;stroke-linecap:butt;stroke-linejoin:miter;stroke-miterlimit:4;stroke-dasharray:none;stroke-opacity:1"
             d="m 119.219,85.082 0,-46.5195" /><path
             id="path66"
             style="fill:#ffffff;fill-opacity:1;fill-rule:nonzero;stroke:none"
             d="m 118.59,27.1133 -16.602,33.8281 33.242,0 -16.64,-33.8281" /><path
             id="path68"
             style="fill:none;stroke:#ffffff;stroke-width:4;stroke-linecap:butt;stroke-linejoin:miter;stroke-miterlimit:4;stroke-dasharray:none;stroke-opacity:1"
             d="m 118.59,27.1133 -16.602,33.8281 33.242,0 -16.64,-33.8281 z" /><path
             id="path70"
             style="fill:#ffffff;fill-opacity:1;fill-rule:nonzero;stroke:none"
             d="M 151.719,98.5625 184.648,65.6328" /><path
             id="path72"
             style="fill:none;stroke:#ffffff;stroke-width:4;stroke-linecap:butt;stroke-linejoin:miter;stroke-miterlimit:4;stroke-dasharray:none;stroke-opacity:1"
             d="M 151.719,98.5625 184.648,65.6328" /><path
             id="path74"
             style="fill:#ffffff;fill-opacity:1;fill-rule:nonzero;stroke:none"
             d="m 192.27,57.1133 -35.668,12.1484 23.558,23.5196 12.11,-35.668" /><path
             id="path76"
             style="fill:none;stroke:#ffffff;stroke-width:4;stroke-linecap:butt;stroke-linejoin:miter;stroke-miterlimit:4;stroke-dasharray:none;stroke-opacity:1"
             d="m 192.27,57.1133 -35.668,12.1484 23.558,23.5196 12.11,-35.668 z" /><path
             id="path78"
             style="fill:none;stroke:#ffffff;stroke-width:4;stroke-linecap:butt;stroke-linejoin:miter;stroke-miterlimit:4;stroke-dasharray:none;stroke-opacity:1"
             d="m 165.199,131.02 46.52,0" /><path
             id="path80"
             style="fill:#ffffff;fill-opacity:1;fill-rule:nonzero;stroke:none"
             d="m 223.16,130.391 -33.82,-16.598 0,33.238 33.82,-16.64" /><path
             id="path82"
             style="fill:none;stroke:#ffffff;stroke-width:4;stroke-linecap:butt;stroke-linejoin:miter;stroke-miterlimit:4;stroke-dasharray:none;stroke-opacity:1"
             d="m 223.16,130.391 -33.82,-16.598 0,33.238 33.82,-16.64 z" /><path
             id="path84"
             style="fill:#ffffff;fill-opacity:1;fill-rule:nonzero;stroke:none"
             d="m 151.719,163.52 32.929,32.933" /><path
             id="path86"
             style="fill:none;stroke:#ffffff;stroke-width:4;stroke-linecap:butt;stroke-linejoin:miter;stroke-miterlimit:4;stroke-dasharray:none;stroke-opacity:1"
             d="m 151.719,163.52 32.929,32.933" /><path
             id="path88"
             style="fill:#ffffff;fill-opacity:1;fill-rule:nonzero;stroke:none"
             d="m 193.16,204.063 -12.14,-35.661 -23.52,23.52 35.66,12.141" /><path
             id="path90"
             style="fill:none;stroke:#ffffff;stroke-width:4;stroke-linecap:butt;stroke-linejoin:miter;stroke-miterlimit:4;stroke-dasharray:none;stroke-opacity:1"
             d="m 193.16,204.063 -12.14,-35.661 -23.52,23.52 35.66,12.141 z" /><g
             transform="scale(10,10)"
             id="g92"><text
               id="text94"
               style="font-variant:normal;font-weight:normal;font-size:7px;font-family:Helvetica;-inkscape-font-specification:Helvetica;writing-mode:lr-tb;fill:#026c9b;fill-opacity:1;fill-rule:nonzero;stroke:none"
               transform="matrix(1,0,0,-1,8.67344,10.7289)"><tspan
                 id="tspan96"
                 y="0"
                 x="0 4.6690001">Si</tspan></text>
</g></g></g></g></g></svg>

<svg xmlns="http://www.w3.org/2000/svg" viewBox="0 0 35 37.5" height="37.5" width="35"><defs><clipPath id="a"><path d="M0 10v286h280V10H0z"/></clipPath></defs><g clip-path="url(#a)" transform="matrix(.13 0 0 -.13 0 37.5)"><path d="M5.309 14.582h226.84V245.32H5.309V14.582z" fill="#026c9b"/><path d="M5.309 14.582h226.84V245.32H5.309V14.582z" fill="none" stroke="#fff" stroke-width="4"/><path d="M278.012 291.25l-46.532-45.859H5.078l49.024 45.859h223.91" fill="#026c9b"/><path d="M278.012 291.25l-46.532-45.859H5.078l49.024 45.859h223.91z" fill="none" stroke="#fff" stroke-width="4"/><path d="M278.281 70.16v220.942L232.34 245.16V15.473l45.941 54.687" fill="#026c9b"/><path d="M278.281 70.16v220.942L232.34 245.16V15.473l45.941 54.687z" fill="none" stroke="#fff" stroke-width="4"/><path d="M119.219 176.992c25.39 0 45.98-20.582 45.98-45.972 0-25.348-20.59-45.938-45.98-45.938-25.348 0-45.938 20.59-45.938 45.938 0 25.39 20.59 45.972 45.938 45.972" fill="#fff"/><path d="M119.219 176.992v46.528" fill="none" stroke="#fff" stroke-width="4"/><path d="M119.84 234.961l16.64-33.82h-33.242l16.602 33.82" fill="#fff"/><path d="M119.84 234.961l16.64-33.82h-33.242l16.602 33.82z" fill="none" stroke="#fff" stroke-width="4"/><path d="M86.719 163.52l-32.89 32.933" fill="#fff"/><path d="M86.719 163.52l-32.89 32.933" fill="none" stroke="#fff" stroke-width="4"/><path d="M46.21 204.961l35.63-12.141-23.48-23.519-12.15 35.66" fill="#fff"/><path d="M46.21 204.961l35.63-12.141-23.48-23.519-12.15 35.66zM73.281 131.02H26.72" fill="none" stroke="#fff" stroke-width="4"/><path d="M15.309 131.641l33.832 16.64v-33.238l-33.832 16.598" fill="#fff"/><path d="M15.309 131.641l33.832 16.64v-33.238l-33.832 16.598z" fill="none" stroke="#fff" stroke-width="4"/><path d="M86.719 98.563l-32.89-32.93" fill="#fff"/><path d="M86.719 98.563l-32.89-32.93" fill="none" stroke="#fff" stroke-width="4"/><path d="M45.309 58.012l12.152 35.66L80.98 70.16 45.309 58.012" fill="#fff"/><path d="M45.309 58.012l12.152 35.66L80.98 70.16 45.309 58.012zM119.219 85.082v-46.52" fill="none" stroke="#fff" stroke-width="4"/><path d="M118.59 27.113l-16.602 33.828h33.242l-16.64-33.828" fill="#fff"/><path d="M118.59 27.113l-16.602 33.828h33.242l-16.64-33.828z" fill="none" stroke="#fff" stroke-width="4"/><path d="M151.719 98.563l32.929-32.93" fill="#fff"/><path d="M151.719 98.563l32.929-32.93" fill="none" stroke="#fff" stroke-width="4"/><path d="M192.27 57.113l-35.668 12.149 23.558 23.52 12.11-35.669" fill="#fff"/><path d="M192.27 57.113l-35.668 12.149 23.558 23.52 12.11-35.669zM165.199 131.02h46.52" fill="none" stroke="#fff" stroke-width="4"/><path d="M223.16 130.391l-33.82-16.598v33.238l33.82-16.64" fill="#fff"/><path d="M223.16 130.391l-33.82-16.598v33.238l33.82-16.64z" fill="none" stroke="#fff" stroke-width="4"/><path d="M151.719 163.52l32.929 32.933" fill="#fff"/><path d="M151.719 163.52l32.929 32.933" fill="none" stroke="#fff" stroke-width="4"/><path d="M193.16 204.063l-12.14-35.661-23.52 23.52 35.66 12.141" fill="#fff"/><path d="M193.16 204.063l-12.14-35.661-23.52 23.52 35.66 12.141z" fill="none" stroke="#fff" stroke-width="4"/><text style="-inkscape-font-specification:Helvetica" transform="matrix(10 0 0 -10 86.734 107.289)" font-weight="400" font-size="7" font-family="Helvetica" fill="#026c9b"><tspan y="0" x="0 4.6690001">Si</tspan></text></g></svg>
